X: 24009
T: Log Drivers
R: slide
M: 12/8
K: Gmajor
DBGE D^CD^D|EcAc EEAG|FcEc DDDF|GAGE DD B,C|
DBGE D^CD^D|EcAc EEAG|FcEc DDDF|G2 D2 G2:|
edBG DGFG|AGFG EEAG|FcEc DDDF|GAGE D2 dd|
edBG DGFG|AGFG EEAG|FcEc DDDF|G2 D2 G2:|

